X:698
T:Reel 698
M:4/4
K:Amaj
L:1/8
E|A2GF CEEF|AFED CA,A,E|A2CD EDEd|cABG AGFG|A2CD ECA,C|A2cA BdFG|A2ED  (3CDE FA|GEFG A2|AB|cABG AGED|CEEF GEEd|cABG AGFE|CDB,C A,2A,B|cABG AGFE|CEFG A3B|cABG AGFA|GABd cAAz|
